icons/desktop/16/svg/tracking-cookies-fill-16.svg

<svg width="16" height="16" viewBox="0 0 16 16" fill="none" xmlns="http://www.w3.org/2000/svg">
<path fill-rule="evenodd" clip-rule="evenodd" d="M8 0C8.44587 0 8.90174 0.0419573 9.39258 0.128906C9.76045 0.192884 10.0245 0.518764 10.0127 0.891602C10.0127 0.918602 10.003 1.00813 9.99902 1.03613C9.99909 2.46608 11.0892 3.73985 12.5342 3.96484C12.7691 4.00188 12.972 4.14844 13.083 4.3584L13.3643 4.89355C13.4802 5.11539 13.4781 5.38068 13.3594 5.60059C13.1214 6.03858 13 6.50998 13 7.00098C13 8.27198 13.8163 9.40524 15.0303 9.82324C15.2211 9.88828 15.3779 10.0291 15.4648 10.2119C15.5518 10.3949 15.5602 10.606 15.4893 10.7949C14.3263 13.9079 11.317 16 8 16C3.589 16 0 12.411 0 8C0 3.589 3.589 0 8 0ZM10.125 10C9.50368 10 9 10.5037 9 11.125C9 11.7463 9.50368 12.25 10.125 12.25C10.7463 12.25 11.25 11.7463 11.25 11.125C11.25 10.5037 10.7463 10 10.125 10ZM5 8.25C4.30964 8.25 3.75 8.80964 3.75 9.5C3.75 10.1904 4.30964 10.75 5 10.75C5.69036 10.75 6.25 10.1904 6.25 9.5C6.25 8.80964 5.69036 8.25 5 8.25ZM7 4C6.44772 4 6 4.44772 6 5C6 5.55228 6.44772 6 7 6C7.55228 6 8 5.55228 8 5C8 4.44772 7.55228 4 7 4Z" fill="black"/>
</svg>

<!-- This Source Code Form is subject to the terms of the Mozilla Public
   - License, v. 2.0. If a copy of the MPL was not distributed with this
   - file, You can obtain one at http://mozilla.org/MPL/2.0/. -->
<svg xmlns="http://www.w3.org/2000/svg" width="16" height="16" fill="context-fill" fill-opacity="context-fill-opacity" viewBox="0 0 16 16">
    <path fill-rule="evenodd" d="M8 0c.446 0 .902.042 1.393.129a.75.75 0 0 1 .62.763c0 .027-.01.116-.014.144 0 1.43 1.09 2.704 2.535 2.929a.76.76 0 0 1 .549.393l.281.536a.75.75 0 0 1-.005.707C13.121 6.039 13 6.51 13 7c0 1.271.816 2.404 2.03 2.822a.75.75 0 0 1 .46.972C14.325 13.908 11.316 16 8 16c-4.411 0-8-3.589-8-8s3.589-8 8-8m2.125 10a1.125 1.125 0 1 0 0 2.25 1.125 1.125 0 0 0 0-2.25M5 8.25a1.25 1.25 0 1 0 0 2.5 1.25 1.25 0 0 0 0-2.5M7 4a1 1 0 1 0 0 2 1 1 0 0 0 0-2" clip-rule="evenodd" />
</svg>
